icons/opera-fill.svg

<svg xmlns="http://www.w3.org/2000/svg" width="24" height="24" fill="none"><g clip-path="url(#a)"><g><path fill="#121212" d="M8.71 6.365C7.602 7.67 6.887 9.601 6.837 11.765V12.235C6.888 14.4 7.603 16.328 8.709 17.635C10.143 19.497 12.275 20.679 14.659 20.679C16.0859 20.6758 17.4798 20.2491 18.664 19.453C16.7123 21.2072 14.146 22.1185 11.525 21.988C8.95792 21.8664 6.53625 20.761 4.76264 18.9012C2.98902 17.0413 1.99969 14.57 2 12C2 6.476 6.478 2 12 2H12.037C14.4839 2.00656 16.843 2.91274 18.665 4.546C17.4791 3.75105 16.0847 3.3245 14.657 3.32C12.275 3.32 10.143 4.503 8.707 6.365H8.709H8.71ZM22 12C22.0018 13.4075 21.7056 14.7994 21.1307 16.0841C20.5559 17.3689 19.7156 18.5174 18.665 19.454C16.1 20.704 13.71 19.83 12.918 19.284C15.438 18.73 17.341 15.684 17.341 12C17.341 8.315 15.438 5.27 12.918 4.717C13.709 4.172 16.1 3.297 18.665 4.546C19.7157 5.48254 20.5561 6.631 21.1309 7.91578C21.7057 9.20055 22.0019 10.5925 22 12Z"/></g></g><defs><clipPath id="a"><rect width="24" height="24" fill="white"/></clipPath></defs></svg>

<svg width="24" height="24" fill="none" xmlns="http://www.w3.org/2000/svg"><g clip-path="url(#a)"><path d="M8.71 6.365c-1.108 1.305-1.823 3.236-1.873 5.4v.47c.051 2.165.766 4.093 1.872 5.4 1.434 1.862 3.566 3.044 5.95 3.044a7.208 7.208 0 0 0 4.005-1.226 9.94 9.94 0 0 1-7.139 2.535A9.998 9.998 0 0 1 2 12C2 6.476 6.478 2 12 2h.037a9.97 9.97 0 0 1 6.628 2.546 7.239 7.239 0 0 0-4.008-1.226c-2.382 0-4.514 1.183-5.95 3.045h.003ZM22 12a9.967 9.967 0 0 1-3.335 7.454c-2.565 1.25-4.955.376-5.747-.17 2.52-.554 4.423-3.6 4.423-7.284 0-3.685-1.903-6.73-4.423-7.283.791-.545 3.182-1.42 5.747-.171A9.966 9.966 0 0 1 22 12Z" /></g><defs><clipPath id="a"><path fill="#fff" d="M0 0h24v24H0z"/></clipPath></defs></svg>
